src/assets/images/icons/NextIcon.svg

<svg width="64" height="52" viewBox="0 0 64 52" fill="none" xmlns="http://www.w3.org/2000/svg">
<g clip-path="url(#clip0_47_222)">
<path fill-rule="evenodd" clip-rule="evenodd" d="M4 25.9936C4 25.571 4.21071 25.1656 4.58579 24.8667C4.96086 24.5679 5.46957 24.4 6 24.4L53.172 24.4L40.584 14.3725C40.2084 14.0732 39.9975 13.6674 39.9975 13.2442C39.9975 12.821 40.2084 12.4151 40.584 12.1158C40.9595 11.8166 41.4689 11.6485 42 11.6485C42.5311 11.6485 43.0404 11.8166 43.416 12.1158L59.416 24.8653C59.6022 25.0133 59.75 25.1892 59.8508 25.3828C59.9517 25.5764 60.0036 25.784 60.0036 25.9936C60.0036 26.2033 59.9517 26.4108 59.8508 26.6044C59.75 26.7981 59.6022 26.9739 59.416 27.122L43.416 39.8714C43.0405 40.1707 42.5311 40.3388 42 40.3388C41.4689 40.3388 40.9595 40.1707 40.584 39.8714C40.2085 39.5722 39.9975 39.1663 39.9975 38.7431C39.9975 38.3199 40.2085 37.914 40.584 37.6148L53.172 27.5873L6 27.5873C5.46957 27.5873 4.96086 27.4194 4.58579 27.1205C4.21071 26.8217 4 26.4163 4 25.9936Z" fill="#424D79"/>
</g>
<defs>
<clipPath id="clip0_47_222">
<rect width="50.9979" height="64" fill="white" transform="translate(0 51.4926) rotate(-90)"/>
</clipPath>
</defs>
</svg>

<svg width="64" height="52" fill="none" xmlns="http://www.w3.org/2000/svg"><g clip-path="url(#a)"><path fill-rule="evenodd" clip-rule="evenodd" d="M4 25.994c0-.423.21-.828.586-1.127.375-.3.884-.467 1.414-.467h47.172L40.584 14.373c-.376-.3-.587-.706-.587-1.129 0-.423.211-.829.587-1.128.375-.3.885-.467 1.416-.467.531 0 1.04.168 1.416.467l16 12.75c.186.147.334.323.435.517.1.193.153.401.153.61 0 .21-.052.418-.153.611-.101.194-.249.37-.435.518l-16 12.75c-.375.299-.885.467-1.416.467-.531 0-1.04-.168-1.416-.468-.376-.299-.587-.705-.587-1.128 0-.423.212-.829.587-1.128l12.588-10.028H6c-.53 0-1.04-.168-1.414-.466-.375-.3-.586-.705-.586-1.127Z" fill="#424D79"/></g><defs><clipPath id="a"><path fill="#fff" transform="rotate(-90 25.746 25.746)" d="M0 0h50.998v64H0z"/></clipPath></defs></svg>
